public/icons/Vuetify-Dark.svg

<svg width="256" height="256" viewBox="0 0 256 256" fill="none" xmlns="http://www.w3.org/2000/svg">
<g clip-path="url(#clip0_33_851)">
<path d="M196 0H60C26.8629 0 0 26.8629 0 60V196C0 229.137 26.8629 256 60 256H196C229.137 256 256 229.137 256 196V60C256 26.8629 229.137 0 196 0Z" fill="#242938"/>
<g clip-path="url(#clip1_33_851)">
<path d="M129.353 102.949L94.4607 163.518L127.5 220.891L171.26 144.946L215 69H148.902L129.353 102.949Z" fill="#1697F6"/>
<path d="M83.7599 144.946L86.0515 148.94L118.692 92.265L132.103 69H127.5H40L83.7599 144.946Z" fill="#AEDDFF"/>
<path d="M148.902 69C165.441 123.538 127.5 220.891 127.5 220.891L94.4607 163.518L148.902 69Z" fill="#1867C0"/>
<path d="M132.103 69C62.4183 69 86.0518 148.94 86.0518 148.94L132.103 69Z" fill="#7BC6FF"/>
</g>
</g>
<defs>
<clipPath id="clip0_33_851">
<rect width="256" height="256" fill="white"/>
</clipPath>
<clipPath id="clip1_33_851">
<rect width="175" height="152" fill="white" transform="translate(40 69)"/>
</clipPath>
</defs>
</svg>

<svg xmlns="http://www.w3.org/2000/svg" width="256" height="256" fill="none"><g clip-path="url(#a)"><path fill="#242938" d="M196 0H60C26.863 0 0 26.863 0 60v136c0 33.137 26.863 60 60 60h136c33.137 0 60-26.863 60-60V60c0-33.137-26.863-60-60-60"/><g clip-path="url(#b)"><path fill="#1697F6" d="m129.353 102.949-34.892 60.569 33.039 57.373 43.76-75.945L215 69h-66.098z"/><path fill="#AEDDFF" d="m83.76 144.946 2.291 3.994 32.641-56.675L132.103 69H40z"/><path fill="#1867C0" d="M148.902 69c16.539 54.538-21.402 151.891-21.402 151.891l-33.04-57.373z"/><path fill="#7BC6FF" d="M132.103 69c-69.685 0-46.051 79.94-46.051 79.94z"/></g></g><defs><clipPath id="a"><path fill="#fff" d="M0 0h256v256H0z"/></clipPath><clipPath id="b"><path fill="#fff" d="M40 69h175v152H40z"/></clipPath></defs></svg>
